public/img/assets/icons/10days.svg

<svg width="44" height="44" viewBox="0 0 44 44" fill="none" xmlns="http://www.w3.org/2000/svg">
<rect x="9" y="14" width="8" height="3" rx="1.5" fill="#3377FF"/>
<rect x="9" y="22" width="10" height="3" rx="1.5" fill="#3377FF"/>
<rect x="9" y="30" width="23" height="3" rx="1.5" fill="#3377FF"/>
<path d="M29 11.8333C31.1127 11.8333 32.3107 13.3193 32.4847 15.1128H32.538C32.861 15.1123 33.1809 15.1793 33.4794 15.3102C33.778 15.4411 34.0493 15.6332 34.2779 15.8755C34.5066 16.1178 34.688 16.4057 34.8119 16.7226C34.9358 17.0395 34.9997 17.3792 35 17.7223C34.9997 18.0654 34.9357 18.4051 34.8117 18.7219C34.6878 19.0387 34.5063 19.3264 34.2777 19.5687C34.0491 19.811 33.7778 20.003 33.4792 20.1338C33.1807 20.2646 32.8609 20.3317 32.538 20.3311H32.15L31.0947 22.1983C31.0313 22.3148 30.9286 22.4014 30.8075 22.4406C30.6863 22.4798 30.5557 22.4686 30.442 22.4095C30.3282 22.3503 30.2399 22.2475 30.1947 22.1218C30.1495 21.9961 30.151 21.8569 30.1987 21.7322L30.2287 21.667L30.9953 20.3304H29.5713L28.516 22.1983C28.4526 22.3148 28.35 22.4014 28.2288 22.4406C28.1077 22.4798 27.977 22.4686 27.8633 22.4095C27.7496 22.3503 27.6612 22.2475 27.616 22.1218C27.5709 21.9961 27.5723 21.8569 27.62 21.7322L27.65 21.667L28.4167 20.3304H26.992L25.9373 22.1983C25.8739 22.3148 25.7713 22.4014 25.6502 22.4406C25.529 22.4798 25.3984 22.4686 25.2846 22.4095C25.1709 22.3503 25.0825 22.2475 25.0374 22.1218C24.9922 21.9961 24.9936 21.8569 25.0413 21.7322L25.0713 21.667L25.8373 20.3304H25.462C25.1392 20.331 24.8194 20.264 24.5209 20.1332C24.2224 20.0024 23.9512 19.8104 23.7225 19.5682C23.4939 19.3261 23.3124 19.0384 23.1884 18.7217C23.0645 18.4049 23.0004 18.0654 23 17.7223C23.0004 17.3794 23.0644 17.0399 23.1884 16.7232C23.3123 16.4065 23.4937 16.1189 23.7223 15.8767C23.9508 15.6345 24.2221 15.4425 24.5204 15.3117C24.8188 15.1809 25.1385 15.1138 25.4613 15.1143H25.5147C25.6907 13.3066 26.888 11.8333 29 11.8333Z" fill="#3FD5FE"/>
</svg>

<svg xmlns="http://www.w3.org/2000/svg" fill="none" viewBox="0 0 44 44"><rect fill="#37F" width="8" height="3" x="9" y="14" rx="1.5"/><rect fill="#37F" width="10" height="3" x="9" y="22" rx="1.5"/><rect fill="#37F" width="23" height="3" x="9" y="30" rx="1.5"/><path d="M29 11.83c2.11 0 3.31 1.49 3.48 3.28h.06a2.33 2.33 0 0 1 1.74.77 2.63 2.63 0 0 1 .72 1.84 2.75 2.75 0 0 1-.72 1.85 2.45 2.45 0 0 1-1.74.76h-.4L31.1 22.2a.5.5 0 0 1-.28.24.47.47 0 0 1-.37-.03.52.52 0 0 1-.25-.3.56.56 0 0 1 0-.38l.04-.06.77-1.34h-1.4l-1.05 1.87a.5.5 0 0 1-.3.24.47.47 0 0 1-.36-.03.52.52 0 0 1-.24-.3.56.56 0 0 1 0-.38l.03-.06.77-1.34H27l-1.06 1.87a.5.5 0 0 1-.29.24.47.47 0 0 1-.37-.03.52.52 0 0 1-.24-.3.56.56 0 0 1 0-.38l.03-.06.77-1.34h-.38a2.33 2.33 0 0 1-1.74-.76 2.63 2.63 0 0 1-.72-1.85 2.75 2.75 0 0 1 .72-1.84 2.45 2.45 0 0 1 1.74-.77h.05c.18-1.8 1.38-3.28 3.5-3.28Z" fill="#3FD5FE"/></svg>
